build/img/svg/cl-logo.svg

<?xml version="1.0" encoding="UTF-8"?>
<svg width="100px" height="100px" viewBox="0 0 100 100" version="1.1" xmlns="http://www.w3.org/2000/svg" xmlns:xlink="http://www.w3.org/1999/xlink">
    <!-- Generator: Sketch 52.4 (67378) - http://www.bohemiancoding.com/sketch -->
    <title>cl-logo</title>
    <desc>Created with Sketch.</desc>
    <g id="cl-logo" stroke="none" stroke-width="1" fill="none" fill-rule="evenodd">
        <rect id="Rectangle" fill="#FFFFF8" x="0" y="0" width="100" height="100"></rect>
        <path d="M75.4898437,9.77706804e-12 C73.4994141,1.8046875 71.6498047,3.75019531 69.9421875,5.8375 C64.5890625,11.9550781 60.2558594,18.5826172 56.1773437,25.7197266 C48.4517578,39.1771484 42.6771484,53.8537109 39.5648438,69.0335938 C36.8466797,71.1669922 16.1519531,87.1728516 7.11855469,87.1496094 C4.31484375,87.1423828 2.39863281,85.2238281 2.21582031,82.4255859 C1.88808594,77.4087891 3.84121094,73.4375 11.5707031,66.7578125 C13.8777344,64.7640625 18.7988281,61.2548828 19.9820313,62.4244141 C20.9980469,63.4287109 20.4349609,65.6875 19.8130859,67.4804688 C19.0900391,69.0902344 17.9648438,69.078125 17.5791016,70.7697266 C17.0896484,72.9167969 18.6664063,73.8001953 19.8890625,73.9259766 C21.1519531,74.0560547 22.428125,73.6654297 23.6894531,70.0326172 C23.7214844,69.9402344 23.7400391,69.8423828 23.7517578,69.7419922 C25.0515625,66.1583984 26.2810547,60.7025391 22.7855469,58.6009766 C16.2160156,54.6509766 4.81230469,64.2273438 0,72.3779297 L0,-1.42108547e-14 L75.4898437,-1.42108547e-14 Z M89.2146484,-1.42108547e-14 L100,-1.42108547e-14 L100,54.6283203 C85.3570313,61.7710938 71.9291016,79.0164063 65.3539062,86.8945313 C54.6875,99.6746094 49.8697266,97.8515625 46.6796875,96.2890625 C41.3404297,93.6738281 42.3068359,79.9076172 43.6892578,71.3841797 C54.446875,61.54375 64.2109375,49.9980469 72.4908203,37.9544922 C76.8240234,31.5818359 80.9023438,24.9544922 84.2162109,18.0724609 C85.7455078,14.5041016 87.2746094,10.9355469 88.2943359,7.11191406 C89.0058594,4.97773438 89.715625,2.34765625 89.2146484,9.77706804e-12 Z M100,60.2380859 L100,100 L60.1107422,100 C60.2126953,99.8912109 60.3126953,99.7861328 60.4166016,99.6742188 C71.953125,87.2654297 83.6121094,66.5769531 100,60.2380859 Z M39.8179688,100 L0,100 L0,89.4158203 C1.85605469,90.9916016 4.41542969,91.7376953 6.72773437,91.7376953 C14.84375,91.7376953 26.609375,84.0908203 30.6878906,81.2867188 C33.3419922,79.4134766 35.8990234,77.5392578 38.3617188,75.6076172 C37.4455078,81.5050781 37.0314453,87.5152344 37.8251953,93.5216797 C38.0919922,95.5400391 38.9765625,97.9714844 39.8179688,100 Z M51.1052929,46.0684979 C54.8578818,37.2506344 59.1465255,28.967162 63.9714294,20.9508852 C66.1156486,17.2099424 80.9430062,-4.91446567 85.6650122,-1.06766835 C88.1881666,0.987792489 80.5901548,16.9427468 76.5691277,23.8902413 C74.6931413,27.3637838 72.2806894,30.5703354 70.1358541,34.0440827 C68.2600731,36.983234 66.1156486,39.9225901 63.971224,42.5947507 C58.1419876,50.2738082 51.987216,57.1445224 45.3859375,63.5871094 C46.9499441,57.7769876 49.026797,51.8239521 51.1052929,46.0684979 Z" id="Combined-Shape" fill="#2C2525"></path>
    </g>
</svg>

<svg width="100" height="100" viewBox="0 0 100 100" xmlns="http://www.w3.org/2000/svg">
    <title>
        cl-logo
    </title>
    <g fill="none" fill-rule="evenodd">
        <path fill="#FFFFF8" d="M0 0h100v100H0z"/>
        <path d="M75.49 0a54.16 54.16 0 0 0-5.548 5.838c-5.353 6.117-9.686 12.745-13.765 19.882-7.725 13.457-13.5 28.134-16.612 43.314-2.718 2.133-23.413 18.139-32.446 18.116-2.804-.008-4.72-1.926-4.903-4.724-.328-5.017 1.625-8.989 9.355-15.668 2.307-1.994 7.228-5.503 8.411-4.334 1.016 1.005.453 3.264-.169 5.056-.723 1.61-1.848 1.598-2.234 3.29-.49 2.147 1.087 3.03 2.31 3.156 1.263.13 2.54-.26 3.8-3.893.032-.093.051-.19.063-.291 1.3-3.584 2.53-9.04-.966-11.141C16.216 54.651 4.812 64.227 0 72.378V0h75.49zm13.725 0H100v54.628c-14.643 7.143-28.07 24.388-34.646 32.267-10.666 12.78-15.484 10.957-18.674 9.394-5.34-2.615-4.373-16.381-2.99-24.905 10.757-9.84 20.52-21.386 28.8-33.43 4.334-6.372 8.412-13 11.726-19.882 1.53-3.568 3.059-7.136 4.078-10.96.712-2.134 1.422-4.764.92-7.112zM100 60.238V100H60.11c.103-.109.203-.214.307-.326C71.953 87.265 83.612 66.577 100 60.238zM39.818 100H0V89.416c1.856 1.576 4.415 2.322 6.728 2.322 8.116 0 19.881-7.647 23.96-10.451a188.938 188.938 0 0 0 7.674-5.68c-.916 5.898-1.33 11.908-.537 17.915.267 2.018 1.152 4.45 1.993 6.478zm11.287-53.932c3.753-8.817 8.042-17.1 12.866-25.117C66.116 17.21 80.943-4.914 85.665-1.068c2.523 2.056-5.075 18.01-9.096 24.958-1.876 3.474-4.288 6.68-6.433 10.154-1.876 2.94-4.02 5.879-6.165 8.55-5.829 7.68-11.984 14.55-18.585 20.993 1.564-5.81 3.64-11.763 5.72-17.519z" fill="#2C2525"/>
    </g>
</svg>
